Newaita/actions/22/mail-open-multiple.svg

<svg height="22" viewBox="0 0 22 22" width="22" xmlns="http://www.w3.org/2000/svg"><g fill="#424242"><path d="m1.820312 8.359375v8.183594c0 1.007812.808594 1.820312 1.816407 1.820312h8.1875v-1.820312h-7.277344c-.503906 0-.910156-.402344-.910156-.90625v-7.277344zm16.371094 0v2.726563h1.820313v-2.726563zm0 0"/><path d="m10.929688 3.816406c-.128907-.003906-.261719.023438-.382813.074219l-8.1875 3.640625c-.300781.128906-.507813.40625-.542969.734375-.035156.324219.105469.640625.371094.832031s.613281.226563.910156.085938l7.816406-3.472656 7.820313 3.472656c.296875.140625.644531.105468.910156-.085938s.40625-.507812.371094-.832031c-.039063-.328125-.246094-.605469-.546875-.734375l-8.1875-3.640625c-.109375-.046875-.230469-.074219-.351562-.074219zm0 0"/><path d="m2.746094 7.449219c-.433594-.015625-.820313.28125-.914063.707031s.128907.859375.527344 1.027344l8.1875 3.640625c.234375.105469.5.105469.734375 0l8.1875-3.640625c.300781-.125.507812-.40625.546875-.730469.035156-.324219-.105469-.644531-.371094-.835937-.265625-.191407-.613281-.222657-.910156-.085938l-7.820313 3.476562-7.816406-3.476562c-.109375-.050781-.230468-.078125-.351562-.082031zm0 0"/><path d="m14.097656 12.90625h5.457032c.253906 0 .457031.203125.457031.453125v.910156c0 .253907-.203125.457031-.457031.457031h-5.457032c-.25 0-.453125-.203124-.453125-.457031v-.910156c0-.25.203125-.453125.453125-.453125zm0 0"/><path d="m14.097656 16.542969h5.457032c.253906 0 .457031.207031.457031.457031v.910156c0 .25-.203125.453125-.457031.453125h-5.457032c-.25 0-.453125-.203125-.453125-.453125v-.910156c0-.25.203125-.457031.453125-.457031zm0 0"/></g></svg>

<?xml version="1.0" encoding="UTF-8"?>
<svg xmlns="http://www.w3.org/2000/svg" xmlns:xlink="http://www.w3.org/1999/xlink" width="22px" height="22px" viewBox="0 0 22 22" version="1.1">
<g id="surface1">
<path style=" stroke:none;fill-rule:nonzero;fill:rgb(25.882354%,25.882354%,25.882354%);fill-opacity:1;" d="M 1.820312 8.359375 L 1.820312 16.542969 C 1.820312 17.550781 2.628906 18.363281 3.636719 18.363281 L 11.824219 18.363281 L 11.824219 16.542969 L 4.546875 16.542969 C 4.042969 16.542969 3.636719 16.140625 3.636719 15.636719 L 3.636719 8.359375 Z M 18.191406 8.359375 L 18.191406 11.085938 L 20.011719 11.085938 L 20.011719 8.359375 Z M 18.191406 8.359375 "/>
<path style=" stroke:none;fill-rule:nonzero;fill:rgb(25.882354%,25.882354%,25.882354%);fill-opacity:1;" d="M 10.929688 3.816406 C 10.800781 3.8125 10.667969 3.839844 10.546875 3.890625 L 2.359375 7.53125 C 2.058594 7.660156 1.851562 7.9375 1.816406 8.265625 C 1.78125 8.589844 1.921875 8.90625 2.1875 9.097656 C 2.453125 9.289062 2.800781 9.324219 3.097656 9.183594 L 10.914062 5.710938 L 18.734375 9.183594 C 19.03125 9.324219 19.378906 9.289062 19.644531 9.097656 C 19.910156 8.90625 20.050781 8.589844 20.015625 8.265625 C 19.976562 7.9375 19.769531 7.660156 19.46875 7.53125 L 11.28125 3.890625 C 11.171875 3.84375 11.050781 3.816406 10.929688 3.816406 Z M 10.929688 3.816406 "/>
<path style=" stroke:none;fill-rule:nonzero;fill:rgb(25.882354%,25.882354%,25.882354%);fill-opacity:1;" d="M 2.746094 7.449219 C 2.3125 7.433594 1.925781 7.730469 1.832031 8.15625 C 1.738281 8.582031 1.960938 9.015625 2.359375 9.183594 L 10.546875 12.824219 C 10.78125 12.929688 11.046875 12.929688 11.28125 12.824219 L 19.46875 9.183594 C 19.769531 9.058594 19.976562 8.777344 20.015625 8.453125 C 20.050781 8.128906 19.910156 7.808594 19.644531 7.617188 C 19.378906 7.425781 19.03125 7.394531 18.734375 7.53125 L 10.914062 11.007812 L 3.097656 7.53125 C 2.988281 7.480469 2.867188 7.453125 2.746094 7.449219 Z M 2.746094 7.449219 "/>
<path style=" stroke:none;fill-rule:nonzero;fill:rgb(25.882354%,25.882354%,25.882354%);fill-opacity:1;" d="M 14.097656 12.90625 L 19.554688 12.90625 C 19.808594 12.90625 20.011719 13.109375 20.011719 13.359375 L 20.011719 14.269531 C 20.011719 14.523438 19.808594 14.726562 19.554688 14.726562 L 14.097656 14.726562 C 13.847656 14.726562 13.644531 14.523438 13.644531 14.269531 L 13.644531 13.359375 C 13.644531 13.109375 13.847656 12.90625 14.097656 12.90625 Z M 14.097656 12.90625 "/>
<path style=" stroke:none;fill-rule:nonzero;fill:rgb(25.882354%,25.882354%,25.882354%);fill-opacity:1;" d="M 14.097656 16.542969 L 19.554688 16.542969 C 19.808594 16.542969 20.011719 16.75 20.011719 17 L 20.011719 17.910156 C 20.011719 18.160156 19.808594 18.363281 19.554688 18.363281 L 14.097656 18.363281 C 13.847656 18.363281 13.644531 18.160156 13.644531 17.910156 L 13.644531 17 C 13.644531 16.75 13.847656 16.542969 14.097656 16.542969 Z M 14.097656 16.542969 "/>
</g>
</svg>
